images/themes/default/classification_methods/mClassificationEqualInterval.svg

<svg height="16" width="16" xmlns="http://www.w3.org/2000/svg"><rect fill="#fff" fill-opacity=".502" height="16" rx="2" width="16"/><path d="m.5 2v12m15-12v12m-5-12v12m-5-12v12" fill="#6389b8" stroke="#6389b8"/><path d="m2 4h2v2h-2zm0 3h2v2h-2zm0 3h2v2h-2zm5 0h2v2h-2zm5-3h2v2h-2zm0 3h2v2h-2z"/><g fill="none" stroke="#d3c02d"><path d="m.5 4v-1.5h15v1.5m-10-1.5v1.5m5-1.5v1.5"/><path d="m15.5 12v1.5h-15v-1.5m10 1.5v-1.5m-5 1.5v-1.5"/></g></svg>

<svg xmlns="http://www.w3.org/2000/svg" height="16" width="16"><rect width="16" height="16" rx="2" ry="2" fill="#fff" fill-opacity=".502"/><path d="M.5 2v12M15.5 2v12M10.5 2v12M5.5 2v12" fill="#6389b8" stroke="#6389b8"/><path d="M2 4h2v2H2zM2 7h2v2H2zM2 10h2v2H2zM7 10h2v2H7zM12 7h2v2h-2zM12 10h2v2h-2z"/><g fill="none" stroke="#d3c02d"><path d="M.5 4V2.5h15V4M5.5 2.5V4M10.5 2.5V4"/></g><g fill="none" stroke="#d3c02d"><path d="M15.5 12v1.5H.5V12M10.5 13.5V12M5.5 13.5V12"/></g></svg>
